svg/Octicons/link-external.svg

<svg xmlns="http://www.w3.org/2000/svg" viewBox="0 0 768 1024"><path d="m640 768h-512v-510.09l128-1.906v-128h-256v768h768v-320h-128v192m-256-640l128 128-192 192 128 128 192-192 128 128v-384h-384"/></svg>

<svg height="1024" width="768" xmlns="http://www.w3.org/2000/svg">
  <path d="M640 768H128V257.90599999999995L256 256V128H0v768h768V576H640V768zM384 128l128 128L320 448l128 128 192-192 128 128V128H384z" />
</svg>
